**kern	**text	**kern	**text	**kern	**text	**kern	**text	**kern	**text	**cdata-harm
*staff5	*staff5	*staff4	*staff4	*staff3	*staff3	*staff2	*staff2	*staff1	*staff1	*
=1-	=1-	=1-	=1-	=1-	=1-	=1-	=1-	=1-	=1-	=1-
*clefF4	*	*clefGv2	*	*clefGv2	*	*clefG2	*	*clefG2	*	*
*k[]	*	*k[]	*	*k[]	*	*k[]	*	*k[]	*	*
*M4/4	*	*M4/4	*	*M4/4	*	*M4/4	*	*M4/4	*	*
1r	.	1r	.	1r	.	1r	.	1g/	Seil	<CON_3v
=2	=2	=2	=2	=2	=2	=2	=2	=2	=2	.
1r	.	1r	.	1r	.	2r	.	2.dd\	lau-	.
.	.	.	.	.	.	2g/	Seil	.	.	.
.	.	.	.	.	.	.	.	4dd\	ro&egrave;	.
=3	=3	=3	=3	=3	=3	=3	=3	=3	=3	.
1r	.	2r	.	1r	.	4f/	lau-	2dd\	sem-	.
.	.	.	.	.	.	4g/	ro&egrave;	.	.	.
.	.	2d\	Seil	.	.	4a/	sem-	2dd\	pre	.
.	.	.	.	.	.	4b\	pre	.	.	.
=4	=4	=4	=4	=4	=4	=4	=4	=4	=4	.
1r	.	4c\	lau-	1r	.	1cc\	ver-	1ee\	ver-	.
.	.	4d\	ro&egrave;	.	.	.	.	.	.	.
.	.	4e\	sem-	.	.	.	.	.	.	.
.	.	4f\	pre	.	.	.	.	.	.	.
=5	=5	=5	=5	=5	=5	=5	=5	=5	=5	.
2r	.	1g\	ver-	1r	.	1b\	de	1dd\	de	>
[2G\	E	.	.	.	.	.	.	.	.	<CON_5v
=6	=6	=6	=6	=6	=6	=6	=6	=6	=6	.
2G\]	.	1d\	de	2r	.	1r	.	1r	.	.
2F\	per	.	.	2d\	E	.	.	.	.	.
=7	=7	=7	=7	=7	=7	=7	=7	=7	=7	.
2E\	fred-	1g\	E	2c\	per	1r	.	1r	.	.
4G\	da	.	.	2B\	fred-	.	.	.	.	.
4G\	sta-	.	.	.	.	.	.	.	.	.
=8	=8	=8	=8	=8	=8	=8	=8	=8	=8	.
2D\	gion	1f\	per	4d\	da	1r	.	1r	.	.
.	.	.	.	4d\	sta-	.	.	.	.	.
4F\	fo-	.	.	2A/	gion	.	.	.	.	.
8E\L	.	.	.	.	.	.	.	.	.	.
8D\J	.	.	.	.	.	.	.	.	.	.
=9	=9	=9	=9	=9	=9	=9	=9	=9	=9	.
4C/	.	2e\	fred-	4c\	fo-	1r	.	1r	.	.
4D\	.	.	.	8B/L	.	.	.	.	.	.
.	.	.	.	8A/J	.	.	.	.	.	.
4E\	.	4g\	da	4G/	.	.	.	.	.	.
4F\	.	4g\	sta-	4A/	.	.	.	.	.	.
=10	=10	=10	=10	=10	=10	=10	=10	=10	=10	.
2G\	.	2d\	gion	4B\	.	1r	.	1r	.	.
.	.	.	.	4c\	.	.	.	.	.	.
4D\	glia	4f\	fo-	2d\	.	.	.	.	.	.
4D\	non	8e\L	.	.	.	.	.	.	.	.
.	.	8d\J	.	.	.	.	.	.	.	.
=11	=11	=11	=11	=11	=11	=11	=11	=11	=11	.
1A\	per-	4c\	.	2e\	glia	1r	.	1r	.	.
.	.	4d\	.	.	.	.	.	.	.	.
.	.	4e\	.	2c\	non	.	.	.	.	.
.	.	4f\	.	.	.	.	.	.	.	.
=12	=12	=12	=12	=12	=12	=12	=12	=12	=12	.
1E\	de	2g\	.	2.B\	per-	1r	.	2r	.	.
.	.	4e\	glia	.	.	.	.	[2gg\	E	.
.	.	4e\	non	4c\	.	.	.	.	.	.
=13	=13	=13	=13	=13	=13	=13	=13	=13	=13	.
1r	.	[1a\	per-	2d\	.	2r	.	2gg\]	.	.
.	.	.	.	2d\	de	2dd\	E	2ff\	per	.
=14	=14	=14	=14	=14	=14	=14	=14	=14	=14	.
1r	.	2a\]	.	2r	.	2cc\	per	2ee\	fred-	.
.	.	2e\	de	[2g\	E	[2b\	fred-	4gg\	da	.
.	.	.	.	.	.	.	.	4gg\	sta-	.
=15	=15	=15	=15	=15	=15	=15	=15	=15	=15	.
1r	.	1r	.	2g\]	.	2b\]	.	2dd\	gion	.
.	.	.	.	[2f\	per	4dd\	da	4ff\	fo-	.
.	.	.	.	.	.	4dd\	sta-	8ee\L	.	.
.	.	.	.	.	.	.	.	8dd\J	.	.
=16	=16	=16	=16	=16	=16	=16	=16	=16	=16	.
1r	.	1r	.	2f\]	.	2a/	.	4cc\	.	.
.	.	.	.	.	.	.	.	4dd\	.	.
.	.	.	.	[2e\	fred-	4cc\	gion	4ee\	.	.
.	.	.	.	.	.	8b/L	fo-	4ff\	.	.
.	.	.	.	.	.	8a/J	.	.	.	.
=17	=17	=17	=17	=17	=17	=17	=17	=17	=17	.
1r	.	1r	.	2e\]	.	4g/	.	2gg\	.	.
.	.	.	.	.	.	4a/	.	.	.	.
.	.	.	.	4g\	da	4b\	.	4dd\	glia	.
.	.	.	.	4g\	sta	4cc\	.	4dd\	non	.
=18	=18	=18	=18	=18	=18	=18	=18	=18	=18	.
1r	.	1r	.	2d\	gion	2dd\	.	1ff\	per-	.
.	.	.	.	4f\	fo-	4a/	glia	.	.	.
.	.	.	.	8e\L	.	4a/	non	.	.	.
.	.	.	.	8d\J	.	.	.	.	.	.
=19	=19	=19	=19	=19	=19	=19	=19	=19	=19	.
1r	.	1r	.	4c\	.	1cc\	per-	1ee\	de	.
.	.	.	.	4d\	.	.	.	.	.	.
.	.	.	.	4e\	.	.	.	.	.	.
.	.	.	.	4f\	.	.	.	.	.	.
=20	=20	=20	=20	=20	=20	=20	=20	=20	=20	.
1r	.	1r	.	2g\	.	1b\	de	2r	.	.
.	.	.	.	4d\	glia	.	.	2dd\	fo-	.
.	.	.	.	4d\	non	.	.	.	.	.
=21	=21	=21	=21	=21	=21	=21	=21	=21	=21	.
1r	.	1r	.	1f\	per-	2r	.	4a/	glia	.
.	.	.	.	.	.	.	.	4a/	non	.
.	.	.	.	.	.	2a/	fo-	[2cc\	per-	.
=22	=22	=22	=22	=22	=22	=22	=22	=22	=22	.
1r	.	1G/	Seil	1d\	de	4g/	glia	4cc\]	.	<<CON_5v+1doub+2mot
.	.	.	.	.	.	4d/	non	4b\	.	.
.	.	.	.	.	.	[2g/	per-	4b\	.	.
.	.	.	.	.	.	.	.	8a/L	.	.
.	.	.	.	.	.	.	.	8g/J	.	.
=23	=23	=23	=23	=23	=23	=23	=23	=23	=23	.
1D\	Seil	2.d\	lau-	2r	.	4g/]	.	1a/	.	.
.	.	.	.	.	.	8f/L	.	.	.	.
.	.	.	.	.	.	8e/J	.	.	.	.
.	.	.	.	2A/	Seil	2f/	.	.	.	.
.	.	4d\	ro&egrave;	.	.	.	.	.	.	.
=24	=24	=24	=24	=24	=24	=24	=24	=24	=24	.
2.G\	lau-	2d\	sem-	4G/	lau-	1g/	de	1b\	de	>
.	.	.	.	4A/	ro&egrave;-	.	.	.	.	.
.	.	2d\	pre	4B\	sem-	.	.	.	.	.
4G\	ro&egrave;	.	.	4c\	pre-	.	.	.	.	.
=25	=25	=25	=25	=25	=25	=25	=25	=25	=25	.
2G\	sem-	1g\	ver-	2d\	ver-	2r	.	2r	.	.
2G\	pre	.	.	2B\	de	2b\	Seil	2dd\	Seil	.
=26	=26	=26	=26	=26	=26	=26	=26	=26	=26	.
1A\	ver-	1e\	de	2r	.	4a/	lau-	4cc\	lau-	.
.	.	.	.	.	.	4b\	roe	4dd\	ro&egrave;	.
.	.	.	.	[2c\	E	4cc\	sem-	4ee\	sem-	<CON_5v
.	.	.	.	.	.	4dd\	pre	4ff\	pre	.
=27	=27	=27	=27	=27	=27	=27	=27	=27	=27	.
1G\	de	2r	.	2c\]	.	2ee\	ver-	1gg\	ver-	.
.	.	2g\	E	2B\	per	2dd\	de	.	.	.
=28	=28	=28	=28	=28	=28	=28	=28	=28	=28	.
1r	.	2f\	per	2A/	fred-	1r	.	1cc\	de	>>
.	.	2e\	fred-	4c\	da	.	.	.	.	.
.	.	.	.	4c\	sta-	.	.	.	.	.
=29	=29	=29	=29	=29	=29	=29	=29	=29	=29	.
1r	.	4g\	da	2G/	gion	1dd\	E	1r	.	.
.	.	4g\	sta-	.	.	.	.	.	.	.
.	.	2d\	gion	4B-\	fo-	.	.	.	.	.
.	.	.	.	8A/L	.	.	.	.	.	.
.	.	.	.	8G/J	.	.	.	.	.	.
=30	=30	=30	=30	=30	=30	=30	=30	=30	=30	.
1r	.	4f\	fo-	4A/	.	[1cc\	per	1r	.	.
.	.	8e\L	.	4G/	.	.	.	.	.	.
.	.	8d\J	.	.	.	.	.	.	.	.
.	.	4c\	.	4A/	.	.	.	.	.	.
.	.	4d\	.	4B\	.	.	.	.	.	.
=31	=31	=31	=31	=31	=31	=31	=31	=31	=31	.
2r	.	4e\	.	2c\	.	2cc\]	.	1r	.	.
.	.	4f\	.	.	.	.	.	.	.	.
[2G\	E	2g\	.	2d\	glia	2b\	fred-	.	.	.
=32	=32	=32	=32	=32	=32	=32	=32	=32	=32	.
2G\]	.	2d\	glia	2B\	non	4dd\	da	1r	.	.
.	.	.	.	.	.	4dd\	sta-	.	.	.
[2F\	per	2f\	non	2c\	per-	2a/	gion	.	.	.
=33	=33	=33	=33	=33	=33	=33	=33	=33	=33	.
2F\]	.	1c\	per-	2A/	de	4cc\	fo-	2r	.	.
.	.	.	.	.	.	8b/L	.	.	.	.
.	.	.	.	.	.	8a/J	.	.	.	.
2E\	fred-	.	.	2e\	non	4g/	.	[2gg\	E	.
.	.	.	.	.	.	4a/	.	.	.	.
=34	=34	=34	=34	=34	=34	=34	=34	=34	=34	.
4G\	da	2B\	de	1d\	per-	4b\	.	2gg\]	.	.
4G\	sta-	.	.	.	.	4cc\	.	.	.	.
2D\	gion	[2A/	fo-	.	.	2dd\	.	[2ff\	per	.
=35	=35	=35	=35	=35	=35	=35	=35	=35	=35	.
4F\	fo-	4A/]	.	2c\	de	2a/	glia	2ff\]	.	.
8E\L	.	8G/L	.	.	.	.	.	.	.	.
8D\J	.	8F/J	.	.	.	.	.	.	.	.
4C/	.	[2G/	.	2g\	fo-	2cc\	non	2ee\	fred-	.
4D\	.	.	.	.	.	.	.	.	.	.
=36	=36	=36	=36	=36	=36	=36	=36	=36	=36	.
4E\	.	4G/]	.	2g\	glia	1b\	per-	4gg\	da	.
4F\	.	4A/	.	.	.	.	.	4gg\	sta	.
2G\	.	4B\	.	2g\	non	.	.	2dd\	gion	.
.	.	4c\	.	.	.	.	.	.	.	.
=37	=37	=37	=37	=37	=37	=37	=37	=37	=37	.
4D\	glia	4d\	.	2.f\	per-	1a/	de	4ff\	fo-	.
4D\	non	4e\	.	.	.	.	.	8ee\L	.	.
.	.	.	.	.	.	.	.	8dd\J	.	.
[2A\	per-	2f\	.	.	.	.	.	4cc\	.	.
.	.	.	.	8e\L	.	.	.	4dd\	.	.
.	.	.	.	8d\J	.	.	.	.	.	.
=38	=38	=38	=38	=38	=38	=38	=38	=38	=38	.
4A\]	.	2e\	glia	1c\	.	2cc\	fo-	2ee\	.	.
4B\	.	.	.	.	.	.	.	.	.	.
[2c\	.	2e\	non	.	.	4g/	glia	4ee\	glia	.
.	.	.	.	.	.	4g/	non	4cc\	non	.
=39	=39	=39	=39	=39	=39	=39	=39	=39	=39	.
4c\]	.	1d\	per-	1G/	de	1g/	per-	1dd\	per-	.
8B\L	.	.	.	.	.	.	.	.	.	.
8A\J	.	.	.	.	.	.	.	.	.	.
2B\	.	.	.	.	.	.	.	.	.	.
=40	=40	=40	=40	=40	=40	=40	=40	=40	=40	.
1c\	de	1e\	de	1r	.	1g/	de	1cc\	de	>
=41	=41	=41	=41	=41	=41	=41	=41	=41	=41	.
2r	.	2r	.	2r	.	2r	.	1r	.	.
2G\	On-	2d\	On-	2g\	On-	2b\	On-	.	.	<HOM_4v
=42	=42	=42	=42	=42	=42	=42	=42	=42	=42	.
1G\	d'&egrave;	1d\	d'&egrave;	1g\	d'&egrave;	1b\	d'&egrave;	2r	.	>
.	.	.	.	.	.	.	.	2dd\	che'l	<CONcan_2v
=43	=43	=43	=43	=43	=43	=43	=43	=43	=43	.
1r	.	4r	.	1r	.	1r	.	2ee\	mio	.
.	.	4g\	che'l	.	.	.	.	.	.	.
.	.	2a\	mio	.	.	.	.	2cc\	sfron-	.
=44	=44	=44	=44	=44	=44	=44	=44	=44	=44	.
1r	.	2f\	sfron-	1r	.	1r	.	2dd\	da-	.
.	.	2g\	da-	.	.	.	.	4b\	to	.
.	.	.	.	.	.	.	.	4b\	e	.
=45	=45	=45	=45	=45	=45	=45	=45	=45	=45	.
1r	.	4e\	to	1r	.	1r	.	2cc\	sec-	.
.	.	4e\	e	.	.	.	.	.	.	.
.	.	2f\	sec-	.	.	.	.	2a/	co	.
=46	=46	=46	=46	=46	=46	=46	=46	=46	=46	.
1r	.	2d\	co	1r	.	4r	.	4r	.	>
.	.	.	.	.	.	4dd\	&agrave;	4ff\	&agrave;	<ANTIF_2v
.	.	2r	.	.	.	4cc\	pri-	4ee\	pri-	.
.	.	.	.	.	.	4b\	ma-	4dd\	ma-	.
=47	=47	=47	=47	=47	=47	=47	=47	=47	=47	.
1r	.	1r	.	4r	.	2a/	ve-	2cc\	ve-	.
.	.	.	.	4a\	&agrave;	.	.	.	.	.
.	.	.	.	4g\	pri-	4b\	ra	2dd\	ra	.
.	.	.	.	4f\	ma-	4dd\	&agrave;	.	.	.
=48	=48	=48	=48	=48	=48	=48	=48	=48	=48	.
1r	.	1r	.	2e\	ve-	4cc\	pri-	2ee\	sia	.
.	.	.	.	.	.	4b\	ma-	.	.	.
.	.	.	.	2f#\	ra	2a/	ve-	[2dd\	res-	.
=49	=49	=49	=49	=49	=49	=49	=49	=49	=49	.
1r	.	1r	.	2g\	sia	2b\	ra	2dd\]	.	.
.	.	.	.	2e\	res-	2g/	sia	[2cc\	ta-	.
=50	=50	=50	=50	=50	=50	=50	=50	=50	=50	.
1r	.	1r	.	1d\	ta-	2a/	res-	4cc\]	.	.
.	.	.	.	.	.	.	.	8b/L	.	.
.	.	.	.	.	.	.	.	8a/J	.	.
.	.	.	.	.	.	[2g/	ta-	2b\	.	.
=51	=51	=51	=51	=51	=51	=51	=51	=51	=51	.
1r	.	1r	.	1d\	to	2g/]	.	1a/	to	.
.	.	.	.	.	.	2f#/	to	.	.	>
=52	=52	=52	=52	=52	=52	=52	=52	=52	=52	.
2r	.	2r	.	1r	.	2r	.	2r	.	.
2G\	On-	2d\	On-	.	.	2g/	On-	2b\	On-	<HOM_5v_rep
=53	=53	=53	=53	=53	=53	=53	=53	=53	=53	.
1G\	d'&egrave;	1d\	d'&egrave;	2r	.	1g/	d'&egrave;	1b\	d'&egrave;	>
.	.	.	.	2d\	che'l	.	.	.	.	<CON_3v+1doub_rep
=54	=54	=54	=54	=54	=54	=54	=54	=54	=54	.
4r	.	1r	.	2e\	mio	2r	.	4r	.	.
4G\	che'l	.	.	.	.	.	.	4b\	che'l	.
2A\	mio	.	.	2c\	sfron-	2e/	che'l	2cc\	mio	.
=55	=55	=55	=55	=55	=55	=55	=55	=55	=55	.
2F\	sfron-	1r	.	2d\	da-	2f/	mio	2a/	sfron-	.
2G\	da-	.	.	4B\	to	2d/	sfron-	2b\	da-	.
.	.	.	.	4B\	e	.	.	.	.	.
=56	=56	=56	=56	=56	=56	=56	=56	=56	=56	.
4E\	to	1r	.	2c\	sec-	2e/	da-	4g/	to	.
4E\	e	.	.	.	.	.	.	4g/	e	.
2F\	sec-	.	.	2A/	co	4c/	to	[2a/	sec-	.
.	.	.	.	.	.	4c/	e	.	.	.
=57	=57	=57	=57	=57	=57	=57	=57	=57	=57	.
2D\	co	4r	.	4r	.	2f/	sec-	2a/]	.	>
.	.	4f\	&agrave;	4d\	&agrave;	.	.	.	.	<ANTIF_3v_rep
2r	.	4e\	pri-	4c\	pri-	2g/	co	2cc\	co	.
.	.	4d\	ma-	4B\	ma-	.	.	.	.	.
=58	=58	=58	=58	=58	=58	=58	=58	=58	=58	.
4r	.	2c\	ve-	2A/	ve-	4r	.	1r	.	.
4A\	&agrave;	.	.	.	.	4cc\	&agrave;	.	.	.
4G\	pri-	2d\	ra	2B\	ra	4b\	pri-	.	.	.
4F\	ma-	.	.	.	.	4a/	ma-	.	.	.
=59	=59	=59	=59	=59	=59	=59	=59	=59	=59	.
2E\	ve-	4e\	sia	4r	.	2g/	ve-	4r	.	.
.	.	4c\	res-	4e\	&agrave;	.	.	4gg\	&agrave;	.
2F\	ra	8A/L	ta-	4d\	pri-	2a/	ra	4ff\	pri-	.
.	.	8B/J	.	.	.	.	.	.	.	.
.	.	8c/L	.	4c\	ma-	.	.	4ee\	ma-	.
.	.	8A/J	.	.	.	.	.	.	.	.
=60	=60	=60	=60	=60	=60	=60	=60	=60	=60	.
2G\	sia	2d\	.	2B\	ve-	2b\	sia	2dd\	ve-	.
2E\	res-	2G/	to	2c#\	ra	2ee\	res-	2ee\	ra	.
=61	=61	=61	=61	=61	=61	=61	=61	=61	=61	.
[1D\	ta-	2A/	sia	2d\	sia	2a/	ta-	2ff\	sia	.
.	.	2d\	res-	2B\	res-	[2g/	.	2dd\	res-	.
=62	=62	=62	=62	=62	=62	=62	=62	=62	=62	.
1D\]	.	1d\	ta-	1A/	ta-	2g/]	.	1dd\	ta-	.
.	.	.	.	.	.	4f#/	.	.	.	.
.	.	.	.	.	.	4e/	.	.	.	.
=63	=63	=63	=63	=63	=63	=63	=63	=63	=63	.
1D\	to?	1d\	to?	1A/	to?	1f/	to?	1dd\	to?	>
=64	=64	=64	=64	=64	=64	=64	=64	=64	=64	.
1r	.	[1e\	Dhe	1r	.	[1g/	Dhe	1r	.	<CON_3v+1doub
=65	=65	=65	=65	=65	=65	=65	=65	=65	=65	.
1r	.	2e\]	.	[1c\	Dhe	2g/]	.	1r	.	.
.	.	4d\	se	.	.	4f/	se	.	.	.
.	.	4c\	pur	.	.	4e/	pur	.	.	.
=66	=66	=66	=66	=66	=66	=66	=66	=66	=66	.
1r	.	2e\	sec-	2c\]	.	2g/	sec-	1r	.	.
.	.	2f#\	co	4B\	se	2a/	co	.	.	.
.	.	.	.	4A/	pur	.	.	.	.	.
=67	=67	=67	=67	=67	=67	=67	=67	=67	=67	.
[1G\	Dhe	1g\	fos-	2d\	sec-	1b\	fos-	1r	.	.
.	.	.	.	2d\	co	.	.	.	.	.
=68	=68	=68	=68	=68	=68	=68	=68	=68	=68	.
2G\]	.	1g\	se	1e\	fos-	2b\	se	1r	.	.
4F\	se	.	.	.	.	4r	.	.	.	.
4E\	pur	.	.	.	.	4cc\	&agrave;	.	.	<CONcan_2v
=69	=69	=69	=69	=69	=69	=69	=69	=69	=69	.
2G\	sec-	2r	.	1d\	se	4.b\	tut-	1r	.	.
.	.	.	.	.	.	8cc\	.	.	.	.
2G\	co	4r	.	.	.	4dd\	.	.	.	.
.	.	4g\	&agrave;	.	.	4b\	ti	.	.	.
=70	=70	=70	=70	=70	=70	=70	=70	=70	=70	.
2A\	fos-	4.e\	tut-	1r	.	2cc\	co-	1r	.	.
.	.	8f\	.	.	.	.	.	.	.	.
2G\	se	4g\	.	.	.	2b\	me&agrave;	.	.	>
.	.	4e\	ti	.	.	.	.	.	.	.
=71	=71	=71	=71	=71	=71	=71	=71	=71	=71	.
1r	.	2f\	co-	2r	.	2a/	me	1r	.	.
.	.	2e\	me&agrave;	2c\	&agrave;	2r	.	.	.	<CONcan_2v_rep
=72	=72	=72	=72	=72	=72	=72	=72	=72	=72	.
2r	.	1d\	me	4.B\	tut-	1r	.	1r	.	>
.	.	.	.	8c\	.	.	.	.	.	.
4r	.	.	.	4d\	.	.	.	.	.	.
4G\	&agrave;	.	.	4B\	ti	.	.	.	.	.
=73	=73	=73	=73	=73	=73	=73	=73	=73	=73	.
4.E\	tut-	1r	.	2c\	co-	1r	.	1r	.	.
8F\	.	.	.	.	.	.	.	.	.	.
4G\	.	.	.	2B\	me&agrave;	.	.	.	.	.
4E\	ti	.	.	.	.	.	.	.	.	.
=74	=74	=74	=74	=74	=74	=74	=74	=74	=74	.
2F\	co-	[1c\	Dhe	2A/	me	1r	.	1r	.	.
2c\	me&agrave;	.	.	[2e\	Dhe	.	.	.	.	<<CON_2v+1doub_rep
=75	=75	=75	=75	=75	=75	=75	=75	=75	=75	.
1A\	me	2c\]	.	2e\]	.	1r	.	[1cc\	Dhe	>
.	.	4B\	se	4d\	se	.	.	.	.	.
.	.	4A/	pur	4c\	pur	.	.	.	.	.
=76	=76	=76	=76	=76	=76	=76	=76	=76	=76	.
1r	.	2c\	sec-	2e\	sec-	1r	.	2cc\]	.	.
.	.	2d\	co	2f#\	co	.	.	4b\	se	.
.	.	.	.	.	.	.	.	4a/	pur	.
=77	=77	=77	=77	=77	=77	=77	=77	=77	=77	.
1r	.	2e\	fos-	2g\	fos-	1r	.	2cc\	sec-	.
.	.	4A/	se	4e\	se	.	.	2cc\	co	.
.	.	4f\	&agrave;	4a\	&agrave;	.	.	.	.	.
=78	=78	=78	=78	=78	=78	=78	=78	=78	=78	.
1r	.	4.d\	tut-	4.f\	tut-	1r	.	1dd\	fos-	.
.	.	8e\	.	8g\	.	.	.	.	.	.
.	.	4f\	.	4a\	.	.	.	.	.	.
.	.	4d\	ti	4f\	ti	.	.	.	.	.
=79	=79	=79	=79	=79	=79	=79	=79	=79	=79	.
1r	.	2e\	co-	2g\	co-	4r	.	2cc\	se	.
.	.	.	.	.	.	4cc\	A	.	.	<CONcan_2v_rep
.	.	2f\	me&agrave;	2d\	me&agrave;	4.a/	tut-	4r	.	.
.	.	.	.	.	.	.	.	4ff\	A	.
.	.	.	.	.	.	8b\	.	.	.	.
=80	=80	=80	=80	=80	=80	=80	=80	=80	=80	.
1r	.	1g\	me	2c\	me	4cc\	.	4.ee\	tut-	>>
.	.	.	.	.	.	4g/	ti	.	.	.
.	.	.	.	.	.	.	.	8ff\	.	.
.	.	.	.	2r	.	2b-\	co-	4gg\	.	.
.	.	.	.	.	.	.	.	4dd\	ti	.
=81	=81	=81	=81	=81	=81	=81	=81	=81	=81	.
1r	.	1r	.	1r	.	2a/	me&agrave;	2ff\	co-	.
.	.	.	.	.	.	2g/	me	2ee\	me&agrave;	.
=82	=82	=82	=82	=82	=82	=82	=82	=82	=82	.
1r	.	2r	.	2r	.	1r	.	1dd\	me	>
.	.	[2a\	la	[2f\	la	.	.	.	.	<CON_5v_2mot
=83	=83	=83	=83	=83	=83	=83	=83	=83	=83	.
[1A\	la	2a\]	.	2f\]	.	1r	.	1r	.	.
.	.	[2g\	pe-	[2e\	pe-	.	.	.	.	.
=84	=84	=84	=84	=84	=84	=84	=84	=84	=84	.
1A\]	.	2g\]	.	2e\]	.	[1cc\	la	1r	.	.
.	.	2f\	ne	2c\	na	.	.	.	.	.
=85	=85	=85	=85	=85	=85	=85	=85	=85	=85	.
[1G\	pe-	1g\	mi-	2e\	mi-	2cc\]	.	1r	.	.
.	.	.	.	2d\	a	[2b\	pe-	.	.	.
=86	=86	=86	=86	=86	=86	=86	=86	=86	=86	.
2G\]	.	[1d\	a	1r	.	2b\]	.	1r	.	.
2F#\	na	.	.	.	.	2a/	na	.	.	.
=87	=87	=87	=87	=87	=87	=87	=87	=87	=87	.
1G\	mi-	1d\]	.	2r	.	2b\	mi-	2r	.	.
.	.	.	.	2d\	la	2b\	a	2dd\	As-	.
=88	=88	=88	=88	=88	=88	=88	=88	=88	=88	.
1E\	a	2r	.	2c\	pe-	2r	.	2gg\	sai	.
.	.	2e\	As-	2B\	na	2g/	As-	[2gg\	me-	.
=89	=89	=89	=89	=89	=89	=89	=89	=89	=89	.
1r	.	2a\	sai	2c\	mi-	2cc\	sai	4gg\]	.	.
.	.	.	.	.	.	.	.	4ff\	no	.
.	.	[2a\	me-	2A/	a	[2cc\	me-	2ff\	fa-	.
=90	=90	=90	=90	=90	=90	=90	=90	=90	=90	.
1r	.	4a\]	.	1r	.	4cc\]	.	1ee\	ri-	.
.	.	4g\	no	.	.	4b\	no	.	.	.
.	.	2g\	fa-	.	.	2b\	fa-	.	.	.
=91	=91	=91	=91	=91	=91	=91	=91	=91	=91	.
1r	.	2f\	ri-	1r	.	2a/	ri-	2dd\	a	.
.	.	2e\	a	.	.	2g/	a	[2ee\	la	.
=92	=92	=92	=92	=92	=92	=92	=92	=92	=92	.
1r	.	1f\	la	2r	.	1a/	la	2ee\]	.	.
.	.	.	.	[2a\	la	.	.	[2dd\	pe-	.
=93	=93	=93	=93	=93	=93	=93	=93	=93	=93	.
1r	.	1e\	pe-	2a\]	.	2b\	pe-	2dd\]	.	.
.	.	.	.	[2g\	pe-	2e/	na	2cc\	na	.
=94	=94	=94	=94	=94	=94	=94	=94	=94	=94	.
2r	.	2d\	na	2g\]	.	1a/	mi-	1dd\	mi-	.
2D\	As-	[2d\	mi-	2f\	na	.	.	.	.	.
=95	=95	=95	=95	=95	=95	=95	=95	=95	=95	.
2G\	sai	2d\]	.	1g\	mi-	2d/	a	1b\	a	.
[2G\	me-	4c\	.	.	.	2d/	As-	.	.	.
.	.	4B\	.	.	.	.	.	.	.	.
=96	=96	=96	=96	=96	=96	=96	=96	=96	=96	.
4G\]	.	2A/	.	2c\	a	2a/	sai	1r	.	.
4F\	no	.	.	.	.	.	.	.	.	.
2F\	fa-	2d\	a	4r	.	[2a/	me-	.	.	.
.	.	.	.	4A/	As-	.	.	.	.	.
=97	=97	=97	=97	=97	=97	=97	=97	=97	=97	.
[1E\	ri-	2c\	As-	2e\	sai	4a/]	.	1r	.	.
.	.	.	.	.	.	4g/	no	.	.	.
.	.	2B\	sai	[2e\	me-	2g/	fa-	.	.	.
=98	=98	=98	=98	=98	=98	=98	=98	=98	=98	.
1E\]	.	2g\	me-	4e\]	.	4cc\	ri-	1r	.	.
.	.	.	.	4d\	no	[4b\	.	.	.	.
.	.	4e\	no	2c\	fa-	8b/L]	.	.	.	.
.	.	.	.	.	.	8a/J	.	.	.	.
.	.	4e\	fa-	.	.	[4a/	.	.	.	.
=99	=99	=99	=99	=99	=99	=99	=99	=99	=99	.
1E\	a	1e\	ri-	1B\	ri-	4a/]	.	1r	.	.
.	.	.	.	.	.	8g#/L	.	.	.	.
.	.	.	.	.	.	8f/J	.	.	.	.
.	.	.	.	.	.	2g#/	.	.	.	.
=100	=100	=100	=100	=100	=100	=100	=100	=100	=100	.
1r	.	1e\	a	1A/	a	1a/	a	1r	.	>
=101	=101	=101	=101	=101	=101	=101	=101	=101	=101	.
1r	.	1r	.	2r	.	2r	.	2dd\	Ma	<imit
.	.	.	.	2d\	Main-	[2a/	Main-	[2ff\	in-	.
=102	=102	=102	=102	=102	=102	=102	=102	=102	=102	.
1r	.	1r	.	1f\	gra-	2a/]	.	4ff\]	.	.
.	.	.	.	.	.	.	.	4ee\	gra-	.
.	.	.	.	.	.	[2b-\	gra-	[2dd\	.	.
=103	=103	=103	=103	=103	=103	=103	=103	=103	=103	.
1r	.	1r	.	1f\	to	2b-\]	.	2dd\]	.	.
.	.	.	.	.	.	2a/	to	2cc\	to	>
=104	=104	=104	=104	=104	=104	=104	=104	=104	=104	.
1r	.	1r	.	4r	.	4r	.	1r	.	.
.	.	.	.	2e\	so-	2g/	so-	.	.	<HOM_2v
.	.	.	.	4f\	lo&agrave;	4a/	lo&agrave;	.	.	.
=105	=105	=105	=105	=105	=105	=105	=105	=105	=105	.
1r	.	1r	.	2d\	me	2f/	me	1r	.	.
.	.	.	.	[2c\	sec-	[2e/	sec-	.	.	.
=106	=106	=106	=106	=106	=106	=106	=106	=106	=106	.
1r	.	1r	.	4c\]	.	4e/]	.	1r	.	.
.	.	.	.	4f\	co	4d/	co	.	.	.
.	.	.	.	[2e\	lan-	2c/	lan-	.	.	.
=107	=107	=107	=107	=107	=107	=107	=107	=107	=107	.
1r	.	1r	.	2e\]	.	1f/	guis-	1r	.	.
.	.	.	.	[2d\	guis-	.	.	.	.	.
=108	=108	=108	=108	=108	=108	=108	=108	=108	=108	.
1r	.	1r	.	2d\]	.	2.e/	.	1r	.	.
.	.	.	.	4c#\	.	.	.	.	.	.
.	.	.	.	4B\	.	4d/	.	.	.	.
=109	=109	=109	=109	=109	=109	=109	=109	=109	=109	.
1r	.	1r	.	1c\	.	1e/	.	1r	.	.
=110	=110	=110	=110	=110	=110	=110	=110	=110	=110	.
1r	.	4r	.	1d\	ce	2d/	ce	4r	.	>
.	.	4G/	E&agrave;	.	.	.	.	4b\	E&agrave;	<CON_3v+1doub+1trip
.	.	4.G/	glial-	.	.	4r	.	4.b\	glial-	.
.	.	.	.	.	.	4g/	E&agrave;	.	.	.
.	.	8A/	tri	.	.	.	.	8cc\	tri	.
=111	=111	=111	=111	=111	=111	=111	=111	=111	=111	.
2r	.	4B\	pi&ugrave;	2r	.	4.g/	glial-	4dd\	pi&ugrave;	.
.	.	4c\	che	.	.	.	.	4ee\	che	.
.	.	.	.	.	.	8a/	tri	.	.	.
4r	.	2G/	mai	4r	.	4b\	pi&ugrave;	4dd\	mai	.
4C/	E&agrave;	.	.	4e\	E&agrave;	4cc\	che	4gg\	E&agrave;	.
=112	=112	=112	=112	=112	=112	=112	=112	=112	=112	.
4.C/	glial-	1r	.	4.e\	glial-	2g/	mai	4.gg\	glial-	.
8D\	tri	.	.	8f\	tri	.	.	8ff\	tri	.
4E\	pi&ugrave;	.	.	4g\	pi&ugrave;	2r	.	4ee\	pi&ugrave;	.
4F\	che	.	.	4a\	che	.	.	4dd\	che	.
=113	=113	=113	=113	=113	=113	=113	=113	=113	=113	.
2C/	mai	1g\	ver-	1e\	mai	1r	.	1ee\	mai	>
4C/	ver-	.	.	.	.	.	.	.	.	<CON_5v+2mot
4D\	.	.	.	.	.	.	.	.	.	.
=114	=114	=114	=114	=114	=114	=114	=114	=114	=114	.
4E\	.	2g\	de	1r	.	1r	.	1r	.	.
4F\	.	.	.	.	.	.	.	.	.	.
4G\	.	2g\	fio-	.	.	.	.	.	.	.
4E\	.	.	.	.	.	.	.	.	.	.
=115	=115	=115	=115	=115	=115	=115	=115	=115	=115	.
4F\	.	1a\	ris-	1r	.	2r	.	1r	.	.
4G\	.	.	.	.	.	.	.	.	.	.
4A\	.	.	.	.	.	4c/	ver-	.	.	.
4B\	.	.	.	.	.	4d/	.	.	.	.
=116	=116	=116	=116	=116	=116	=116	=116	=116	=116	.
2c\	.	1g\	ce	1r	.	4e/	.	1r	.	.
.	.	.	.	.	.	4f/	.	.	.	.
4B\	de	.	.	.	.	4g/	.	.	.	.
4c\	fio-	.	.	.	.	4e/	.	.	.	.
=117	=117	=117	=117	=117	=117	=117	=117	=117	=117	.
1d\	ris-	1r	.	1r	.	4f/	.	1r	.	.
.	.	.	.	.	.	4g/	.	.	.	.
.	.	.	.	.	.	4a/	.	.	.	.
.	.	.	.	.	.	4b\	.	.	.	.
=118	=118	=118	=118	=118	=118	=118	=118	=118	=118	.
1c\	ce	1r	.	1g\	ver-	4cc\	.	2r	.	.
.	.	.	.	.	.	4dd\	.	.	.	.
.	.	.	.	.	.	2ee\	.	4g/	ver-	.
.	.	.	.	.	.	.	.	4a/	.	.
=119	=119	=119	=119	=119	=119	=119	=119	=119	=119	.
1r	.	1r	.	2g\	de	2dd\	de	4b\	.	.
.	.	.	.	.	.	.	.	4cc\	.	.
.	.	.	.	2g\	fio-	2dd\	fio-	4dd\	.	.
.	.	.	.	.	.	.	.	4b\	.	.
=120	=120	=120	=120	=120	=120	=120	=120	=120	=120	.
1r	.	2r	.	1a\	ris-	1cc\	ris-	4cc\	.	.
.	.	.	.	.	.	.	.	4dd\	.	.
.	.	4c\	ver-	.	.	.	.	4ee\	.	.
.	.	4d\	.	.	.	.	.	4ff\	.	.
=121	=121	=121	=121	=121	=121	=121	=121	=121	=121	.
1G\	ver-	4e\	.	2g\	ce	[1b\	ce	1gg\	.	.
.	.	4f\	.	.	.	.	.	.	.	.
.	.	[2g\	.	4G/	ver-	.	.	.	.	.
.	.	.	.	4A/	.	.	.	.	.	.
=122	=122	=122	=122	=122	=122	=122	=122	=122	=122	.
2G\	de	2g\]	.	4B\	.	1b\]	.	2dd\	de	.
.	.	.	.	4c\	.	.	.	.	.	.
2G\	fio-	2d\	de	4d\	.	.	.	2dd\	fio-	.
.	.	.	.	4B\	.	.	.	.	.	.
=123	=123	=123	=123	=123	=123	=123	=123	=123	=123	.
1A\	ris-	2f\	fio-	4c\	.	1r	.	1cc\	ris-	.
.	.	.	.	4d\	.	.	.	.	.	.
.	.	[2e\	ris-	4e\	.	.	.	.	.	.
.	.	.	.	4f\	.	.	.	.	.	.
=124	=124	=124	=124	=124	=124	=124	=124	=124	=124	.
2G\	ce	4e\]	.	2g\	.	1r	.	1b\	ce	.
.	.	8d\L	.	.	.	.	.	.	.	.
.	.	8c\J	.	.	.	.	.	.	.	.
4G\	ver-	[2d\	.	2g\	de	.	.	.	.	.
4A\	.	.	.	.	.	.	.	.	.	.
=125	=125	=125	=125	=125	=125	=125	=125	=125	=125	.
4B\	.	2d\]	.	4G/	ver-	2r	.	1dd\	ver-	.
4c\	.	.	.	4A/	.	.	.	.	.	.
2d\	.	2G/	ce	4B\	.	4g/	ver-	.	.	.
.	.	.	.	4c\	.	4a/	.	.	.	.
=126	=126	=126	=126	=126	=126	=126	=126	=126	=126	.
2G\	de	1r	.	4d\	.	4b\	.	2dd\	de	.
.	.	.	.	4e\	.	4cc\	.	.	.	.
4r	.	.	.	4f\	.	4dd\	.	2dd\	fio-	.
4G\	fio-	.	.	4d\	.	4b\	.	.	.	.
=127	=127	=127	=127	=127	=127	=127	=127	=127	=127	.
4C/	ris-	1G/	ver-	2g\	.	2cc\	de	1ee\	ris-	.
4D\	.	.	.	.	.	.	.	.	.	.
4E\	.	.	.	2g\	de	4cc\	fio-	.	.	.
4F\	.	.	.	.	.	4cc\	ris-	.	.	.
=128	=128	=128	=128	=128	=128	=128	=128	=128	=128	.
2.G\	.	2G/	de	2d\	fio-	4b\	.	[1dd\	ce.	.
.	.	.	.	.	.	4a/	.	.	.	.
.	.	2G/	fio-	[2g\	ris-	4b\	.	.	.	.
8F\L	.	.	.	.	.	4cc\	.	.	.	.
8E\J	.	.	.	.	.	.	.	.	.	.
=129	=129	=129	=129	=129	=129	=129	=129	=129	=129	.
1D\	.	1A/	ris-	2g\]	.	4dd\	.	1dd\_	.	.
.	.	.	.	.	.	8cc\L	.	.	.	.
.	.	.	.	.	.	8b\J	.	.	.	.
.	.	.	.	2f\	.	2a/	.	.	.	.
=130	=130	=130	=130	=130	=130	=130	=130	=130	=130	.
1GG/	ce.	1G/	ce.	1g\	ce.	1b\	ce.	1dd\]	.	>
==	==	==	==	==	==	==	==	==	==	==
*-	*-	*-	*-	*-	*-	*-	*-	*-	*-	*-
